X: 5674
T: Bygone Days
R: waltz
M: 3/4
K: Gmajor
B>A|G4 B>d|g4 f>g|e4 d>c|d4 B>A|G4 B>d|
d4 B>d|ef/e/ d2 B2|A4 B>A|G4 B>d|g4 f>g|
e4 d>c|d4 B>A|G4 B>d|d4 c>B|AB/A/ G2 F2|
G4 g>f|g4 a>b|a4 g>f|g2 f2 f>e|d4 B>d|
e3f g2|d<B B2 B>d|ef/e/ d2 B2|A4 g>f|
g4 a>b|a4 g>f|g2 f3e|d4 G>A|
B<g g2 f>e|d<B B2 G>B|AB/A/ G2 F2|G4 G>A|
B<g g2 f>e|d<B B2 G>B|AB/A/ G2 F2|G4||

